img/waves2.svg

<?xml version="1.0" encoding="UTF-8" standalone="no"?>
<svg
   id="visual"
   viewBox="0 0 960 257.05786"
   width="960"
   height="257.05786"
   version="1.1"
   sodipodi:docname="waves2.svg"
   inkscape:version="1.2.1 (9c6d41e410, 2022-07-14)"
   xmlns:inkscape="http://www.inkscape.org/namespaces/inkscape"
   xmlns:sodipodi="http://sodipodi.sourceforge.net/DTD/sodipodi-0.dtd"
   xmlns="http://www.w3.org/2000/svg"
   xmlns:svg="http://www.w3.org/2000/svg">
  <defs
     id="defs19">
    <clipPath
       clipPathUnits="userSpaceOnUse"
       id="clipPath299">
      <rect
         style="fill:#000000"
         id="rect301"
         width="1301.157"
         height="414.14877"
         x="-203.90083"
         y="-157.09091" />
    </clipPath>
    <clipPath
       clipPathUnits="userSpaceOnUse"
       id="clipPath303">
      <rect
         style="fill:#000000"
         id="rect305"
         width="1301.157"
         height="414.14877"
         x="-203.90083"
         y="-157.09091" />
    </clipPath>
    <clipPath
       clipPathUnits="userSpaceOnUse"
       id="clipPath307">
      <rect
         style="fill:#000000"
         id="rect309"
         width="1301.157"
         height="414.14877"
         x="-203.90083"
         y="-157.09091" />
    </clipPath>
    <clipPath
       clipPathUnits="userSpaceOnUse"
       id="clipPath311">
      <rect
         style="fill:#000000"
         id="rect313"
         width="1301.157"
         height="414.14877"
         x="-203.90083"
         y="-157.09091" />
    </clipPath>
    <clipPath
       clipPathUnits="userSpaceOnUse"
       id="clipPath315">
      <rect
         style="fill:#000000"
         id="rect317"
         width="1301.157"
         height="414.14877"
         x="-203.90083"
         y="-157.09091" />
    </clipPath>
    <clipPath
       clipPathUnits="userSpaceOnUse"
       id="clipPath319">
      <rect
         style="fill:#000000"
         id="rect321"
         width="1301.157"
         height="414.14877"
         x="-203.90083"
         y="-157.09091" />
    </clipPath>
    <clipPath
       clipPathUnits="userSpaceOnUse"
       id="clipPath323">
      <rect
         style="fill:#000000"
         id="rect325"
         width="1301.157"
         height="414.14877"
         x="-203.90083"
         y="-157.09091" />
    </clipPath>
  </defs>
  <sodipodi:namedview
     id="namedview17"
     pagecolor="#ffffff"
     bordercolor="#000000"
     borderopacity="0.25"
     inkscape:showpageshadow="2"
     inkscape:pageopacity="0.0"
     inkscape:pagecheckerboard="0"
     inkscape:deskcolor="#d1d1d1"
     showgrid="false"
     inkscape:zoom="1.2604167"
     inkscape:cx="480"
     inkscape:cy="149.95041"
     inkscape:window-width="2560"
     inkscape:window-height="1369"
     inkscape:window-x="1912"
     inkscape:window-y="-8"
     inkscape:window-maximized="1"
     inkscape:current-layer="visual" />
  <rect
     x="0"
     y="0"
     width="960"
     height="300"
     fill="#84c8ff"
     id="rect2"
     clip-path="url(#clipPath323)" />
  <path
     d="m 0,205 20,0.8 c 20,0.9 60,2.5 100,7.5 40,5 80,13.4 120,19.4 40,6 80,9.6 120,5.1 40,-4.5 80,-17.1 120,-17.3 40,-0.2 80,12.2 120,20.2 40,8 80,11.6 120,2.1 40,-9.5 80,-32.1 120,-34.8 40,-2.7 80,14.7 100,23.3 l 20,8.7 V 0 H 940 C 920,0 880,0 840,0 800,0 760,0 720,0 680,0 640,0 600,0 560,0 520,0 480,0 440,0 400,0 360,0 320,0 280,0 240,0 200,0 160,0 120,0 80,0 40,0 20,0 H 0 Z"
     fill="#a4d6ff"
     id="path4"
     clip-path="url(#clipPath319)" />
  <path
     d="M 0,218 20,205.5 C 40,193 80,168 120,154.5 160,141 200,139 240,143.7 c 40,4.6 80,16 120,18.5 40,2.5 80,-3.9 120,-1.9 40,2 80,12.4 120,9.4 40,-3 80,-19.4 120,-27.4 40,-8 80,-7.6 120,5.2 40,12.8 80,38.2 100,50.8 L 960,211 V 0 H 940 C 920,0 880,0 840,0 800,0 760,0 720,0 680,0 640,0 600,0 560,0 520,0 480,0 440,0 400,0 360,0 320,0 280,0 240,0 200,0 160,0 120,0 80,0 40,0 20,0 H 0 Z"
     fill="#9fc8ff"
     id="path6"
     clip-path="url(#clipPath315)" />
  <path
     d="m 0,127 20,-1.3 c 20,-1.4 60,-4 100,2.1 40,6.2 80,21.2 120,24.4 40,3.1 80,-5.5 120,-12 40,-6.5 80,-10.9 120,-8 40,2.8 80,12.8 120,15 40,2.1 80,-3.5 120,-0.4 40,3.2 80,15.2 120,16 40,0.9 80,-9.5 100,-14.6 L 960,143 V 0 H 940 C 920,0 880,0 840,0 800,0 760,0 720,0 680,0 640,0 600,0 560,0 520,0 480,0 440,0 400,0 360,0 320,0 280,0 240,0 200,0 160,0 120,0 80,0 40,0 20,0 H 0 Z"
     fill="#a7b7ff"
     id="path8"
     clip-path="url(#clipPath311)" />
  <path
     d="m 0,138 20,-5.2 c 20,-5.1 60,-15.5 100,-21.5 40,-6 80,-7.6 120,-10.6 40,-3 80,-7.4 120,-2 40,5.3 80,20.3 120,24.3 40,4 80,-3 120,-12 40,-9 80,-20 120,-16.3 40,3.6 80,22 120,25 40,3 80,-9.4 100,-15.5 L 960,98 V 0 H 940 C 920,0 880,0 840,0 800,0 760,0 720,0 680,0 640,0 600,0 560,0 520,0 480,0 440,0 400,0 360,0 320,0 280,0 240,0 200,0 160,0 120,0 80,0 40,0 20,0 H 0 Z"
     fill="#b9a3f9"
     id="path10"
     clip-path="url(#clipPath307)" />
  <path
     d="m 0,54 20,3.3 c 20,3.4 60,10 100,10.2 40,0.2 80,-6.2 120,-6.2 40,0 80,6.4 120,6.2 40,-0.2 80,-6.8 120,-7.3 40,-0.5 80,5.1 120,10.3 40,5.2 80,9.8 120,10.7 C 760,82 800,79 840,75.5 880,72 920,68 940,66 l 20,-2 V 0 H 940 C 920,0 880,0 840,0 800,0 760,0 720,0 680,0 640,0 600,0 560,0 520,0 480,0 440,0 400,0 360,0 320,0 280,0 240,0 200,0 160,0 120,0 80,0 40,0 20,0 H 0 Z"
     fill="#cf8ce7"
     id="path12"
     clip-path="url(#clipPath303)" />
  <path
     d="m 0,49 20,-4.2 c 20,-4.1 60,-12.5 100,-10.5 40,2 80,14.4 120,14.2 40,-0.2 80,-12.8 120,-18.7 40,-5.8 80,-4.8 120,-1.1 40,3.6 80,10 120,14.8 40,4.8 80,8.2 120,3.8 40,-4.3 80,-16.3 120,-15 40,1.4 80,16 100,23.4 L 960,63 V 0 H 940 C 920,0 880,0 840,0 800,0 760,0 720,0 680,0 640,0 600,0 560,0 520,0 480,0 440,0 400,0 360,0 320,0 280,0 240,0 200,0 160,0 120,0 80,0 40,0 20,0 H 0 Z"
     fill="#e471cb"
     id="path14"
     clip-path="url(#clipPath299)" />
</svg>

<svg id="visual" viewBox="0 0 960 300" width="960" height="300" xmlns="http://www.w3.org/2000/svg" xmlns:xlink="http://www.w3.org/1999/xlink" version="1.1"><rect x="0" y="0" width="960" height="300" fill="#84c8ff"></rect><path d="M0 205L20 205.8C40 206.7 80 208.3 120 213.3C160 218.3 200 226.7 240 232.7C280 238.7 320 242.3 360 237.8C400 233.3 440 220.7 480 220.5C520 220.3 560 232.7 600 240.7C640 248.7 680 252.3 720 242.8C760 233.3 800 210.7 840 208C880 205.3 920 222.7 940 231.3L960 240L960 0L940 0C920 0 880 0 840 0C800 0 760 0 720 0C680 0 640 0 600 0C560 0 520 0 480 0C440 0 400 0 360 0C320 0 280 0 240 0C200 0 160 0 120 0C80 0 40 0 20 0L0 0Z" fill="#a4d6ff"></path><path d="M0 218L20 205.5C40 193 80 168 120 154.5C160 141 200 139 240 143.7C280 148.3 320 159.7 360 162.2C400 164.7 440 158.3 480 160.3C520 162.3 560 172.7 600 169.7C640 166.7 680 150.3 720 142.3C760 134.3 800 134.7 840 147.5C880 160.3 920 185.7 940 198.3L960 211L960 0L940 0C920 0 880 0 840 0C800 0 760 0 720 0C680 0 640 0 600 0C560 0 520 0 480 0C440 0 400 0 360 0C320 0 280 0 240 0C200 0 160 0 120 0C80 0 40 0 20 0L0 0Z" fill="#9fc8ff"></path><path d="M0 127L20 125.7C40 124.3 80 121.7 120 127.8C160 134 200 149 240 152.2C280 155.3 320 146.7 360 140.2C400 133.7 440 129.3 480 132.2C520 135 560 145 600 147.2C640 149.3 680 143.7 720 146.8C760 150 800 162 840 162.8C880 163.7 920 153.3 940 148.2L960 143L960 0L940 0C920 0 880 0 840 0C800 0 760 0 720 0C680 0 640 0 600 0C560 0 520 0 480 0C440 0 400 0 360 0C320 0 280 0 240 0C200 0 160 0 120 0C80 0 40 0 20 0L0 0Z" fill="#a7b7ff"></path><path d="M0 138L20 132.8C40 127.7 80 117.3 120 111.3C160 105.3 200 103.7 240 100.7C280 97.7 320 93.3 360 98.7C400 104 440 119 480 123C520 127 560 120 600 111C640 102 680 91 720 94.7C760 98.3 800 116.7 840 119.7C880 122.7 920 110.3 940 104.2L960 98L960 0L940 0C920 0 880 0 840 0C800 0 760 0 720 0C680 0 640 0 600 0C560 0 520 0 480 0C440 0 400 0 360 0C320 0 280 0 240 0C200 0 160 0 120 0C80 0 40 0 20 0L0 0Z" fill="#b9a3f9"></path><path d="M0 54L20 57.3C40 60.7 80 67.3 120 67.5C160 67.7 200 61.3 240 61.3C280 61.3 320 67.7 360 67.5C400 67.3 440 60.7 480 60.2C520 59.7 560 65.3 600 70.5C640 75.7 680 80.3 720 81.2C760 82 800 79 840 75.5C880 72 920 68 940 66L960 64L960 0L940 0C920 0 880 0 840 0C800 0 760 0 720 0C680 0 640 0 600 0C560 0 520 0 480 0C440 0 400 0 360 0C320 0 280 0 240 0C200 0 160 0 120 0C80 0 40 0 20 0L0 0Z" fill="#cf8ce7"></path><path d="M0 49L20 44.8C40 40.7 80 32.3 120 34.3C160 36.3 200 48.7 240 48.5C280 48.3 320 35.7 360 29.8C400 24 440 25 480 28.7C520 32.3 560 38.7 600 43.5C640 48.3 680 51.7 720 47.3C760 43 800 31 840 32.3C880 33.7 920 48.3 940 55.7L960 63L960 0L940 0C920 0 880 0 840 0C800 0 760 0 720 0C680 0 640 0 600 0C560 0 520 0 480 0C440 0 400 0 360 0C320 0 280 0 240 0C200 0 160 0 120 0C80 0 40 0 20 0L0 0Z" fill="#e471cb"></path></svg>
